X:3277
T:Computer Joe
R:4 part reel
C:Jerry Holland
O:20th Century Cape Breton
S:Tune ofthe Month,
A:<http://www.jerryholland.com>
N:Contacts ...
N:..... Jerry Holland <jerry@cranfordpub.com>
N:Tune books, related recordings
N:..... Cranford Publications <http://www.cranfordpub.com>
H:Copyrights - www.fiddlesticksmusic.com (SOCAN)
Z:Paul Stewart Cranford <psc@cranfordpub.com>
L:1/8
Q:333
M:C|
K:Ador
Aeed e2 ge|dGGA BcdB|Aeed efge|dGdB eAAB|!
Aeed e2 ge|dBGA BcdB|c2 ce dBGA|BcdB eAAB||!
eaag aeea|gedg GABG|eaag efge|dGdB eAAB|!
eaag aeea|gedg edcB|c2 ce dBGA|BcdB eAAB||!
eAAG AB e2|gGGA BcdB|eAAG ABde|gedB eAAB|!
aged decA|gedc cdBG|ceeg dcBG|GABG A2 AB||!
e2 ed decA|BddB dedB|ceed decA|GABG A2 AB|!
e2 ed decA|BddB dedB|ceeg egdB|GABG A2 AB|]!


